src/DGGeoclicker/skin/light/img/DGPopup__photoIcon_light.svg

<svg xmlns="http://www.w3.org/2000/svg" width="12" height="10"><path fill-rule="evenodd" clip-rule="evenodd" fill="#23A5D4" d="M11 1h-1l-1-1h-3l-1 1h-4l-1 1v7l1 1h10l1-1v-7l-1-1zm-8 3h-1v-1h1v1zm4.518 3.992c-1.381 0-2.5-1.119-2.5-2.5s1.119-2.5 2.5-2.5c1.38 0 2.5 1.119 2.5 2.5s-1.121 2.5-2.5 2.5z"/></svg>

<svg xmlns="http://www.w3.org/2000/svg" width="12" height="10">
    <path d="M 11,1 H 10 L 9,0 H 6 L 5,1 H 1 L 0,2 v 7 l 1,1 H 11 L 12,9 V 2 L 11,1 z M 3,4 H 2 V 3 h 1 v 1 z m 4.518,3.992 c -1.381,0 -2.5,-1.119 -2.5,-2.5 0,-1.381 1.119,-2.5 2.5,-2.5 1.38,0 2.5,1.119 2.5,2.5 0,1.381 -1.121,2.5 -2.5,2.5 z" fill="#23a5d4" fill-rule="evenodd"/>
</svg>
